src/components/common/AdvancedFilter/icons/index.svg

<?xml version="1.0" encoding="UTF-8" standalone="no"?> <!-- Created with Vectornator for iOS (http://vectornator.io/) --><!DOCTYPE svg PUBLIC "-//W3C//DTD SVG 1.1//EN" "http://www.w3.org/Graphics/SVG/1.1/DTD/svg11.dtd">
<svg height="100%" style="fill-rule:evenodd;clip-rule:evenodd;stroke-linecap:round;stroke-linejoin:round;" xmlns:xlink="http://www.w3.org/1999/xlink" xmlns="http://www.w3.org/2000/svg" xml:space="preserve" width="100%" xmlns:vectornator="http://vectornator.io" version="1.1" viewBox="0 0 512 512">
<metadata>
<vectornator:setting key="DynamicGuides" value="1"/>
<vectornator:setting key="Units" value="Points"/>
<vectornator:setting key="RulersVisible" value="1"/>
<vectornator:setting key="SnapToGuides" value="1"/>
<vectornator:setting key="GridSpacing" value="36"/>
</metadata>
<defs/>
<g id="Untitled" vectornator:layerName="Untitled">
<path d="M71.9352+180.528L153.393+180.528L153.393+98.7629L71.9352+98.7629L71.9352+180.528ZM93.5081+120.417L131.823+120.417L131.823+158.876L93.5081+158.876L93.5081+120.417Z" opacity="1" fill="#ffffff"/>
<path d="M179.28+98.7629L179.28+180.528L440.065+180.528L440.065+98.7629L179.28+98.7629ZM418.492+158.876L200.853+158.876L200.853+120.417L418.492+120.417L418.492+158.876Z" opacity="1" fill="#ffffff"/>
<path d="M71.9352+286.625L153.393+286.625L153.393+204.86L71.9352+204.86L71.9352+286.625ZM93.5081+226.511L131.823+226.511L131.823+264.971L93.5081+264.971L93.5081+226.511Z" opacity="1" fill="#ffffff"/>
<path d="M179.28+286.625L440.065+286.625L440.065+204.86L179.28+204.86L179.28+286.625ZM200.853+226.511L418.492+226.511L418.492+264.971L200.853+264.971L200.853+226.511Z" opacity="1" fill="#ffffff"/>
<path d="M71.9352+392.722L153.393+392.722L153.393+310.954L71.9352+310.954L71.9352+392.722ZM93.5081+332.608L131.823+332.608L131.823+371.068L93.5081+371.068L93.5081+332.608Z" opacity="1" fill="#ffffff"/>
<path d="M179.28+392.722L440.065+392.722L440.065+310.954L179.28+310.954L179.28+392.722ZM200.853+332.608L418.492+332.608L418.492+371.068L200.853+371.068L200.853+332.608Z" opacity="1" fill="#ffffff"/>
</g>
</svg>

<svg xmlns="http://www.w3.org/2000/svg" xmlns:vectornator="http://vectornator.io" viewBox="0 0 512 512" fill-rule="evenodd" clip-rule="evenodd" stroke-linecap="round" stroke-linejoin="round"><path d="M71.935 180.528h81.458V98.763H71.935v81.765zm21.573-60.111h38.315v38.459H93.508v-38.459zm85.772-21.654v81.765h260.785V98.763H179.28zm239.212 60.113H200.853v-38.459h217.639v38.459zM71.935 286.625h81.458V204.86H71.935v81.765zm21.573-60.114h38.315v38.46H93.508v-38.46zm85.772 60.114h260.785V204.86H179.28v81.765zm21.573-60.114h217.639v38.46H200.853v-38.46zM71.935 392.722h81.458v-81.768H71.935v81.768zm21.573-60.114h38.315v38.46H93.508v-38.46zm85.772 60.114h260.785v-81.768H179.28v81.768zm21.573-60.114h217.639v38.46H200.853v-38.46z" vectornator:layerName="Untitled" fill="#fff"/></svg>
